assets/sonr-icons/atom-fill.svg

<svg xmlns="http://www.w3.org/2000/svg" width="24" height="24" fill="none"><path fill="currentColor" d="M22 12c0 5.523-4.477 10-10 10S2 17.523 2 12 6.477 2 12 2s10 4.477 10 10m-3.979.023c.046-.062.097-.124.145-.184.058-.072.115-.142.16-.206 1.037-1.411 1.309-2.72.765-3.655-.595-1.054-2.108-1.394-4.029-1.088-.697-1.802-1.751-2.941-2.958-2.941S9.843 5.088 9.146 6.907c-.154-.031-.308-.047-.449-.063l-.045-.005c-1.751-.204-3.009.204-3.553 1.139-.595 1.054-.136 2.533 1.088 4.046q-.077.101-.153.196-.077.095-.153.195c-1.037 1.411-1.309 2.72-.765 3.655.459.799 1.462 1.19 2.771 1.19a7 7 0 0 0 1.275-.119c.68 1.819 1.734 2.958 2.941 2.958s2.261-1.139 2.958-2.958c.442.068.867.102 1.258.102 1.309 0 2.295-.391 2.771-1.19.544-.935.272-2.227-.765-3.655q-.076-.09-.153-.188-.076-.097-.153-.187zm-1.683-4.404c1.02 0 1.734.272 2.04.782.357.612.085 1.615-.731 2.72l-.204.255a16 16 0 0 0-1.666-1.479 16 16 0 0 0-.442-2.21l.056-.005c.337-.032.657-.063.947-.063m-2.754 6.953q-.765.434-1.479.765a21 21 0 0 1-1.479-.765 29 29 0 0 1-1.22-.769l-.174-.114a17 17 0 0 1-.085-1.666c0-.578.034-1.139.085-1.666a16.3 16.3 0 0 1 2.856-1.649q.74.332 1.479.765c.493.289.969.595 1.411.901.051.527.085 1.071.085 1.649s-.034 1.122-.085 1.649c-.442.306-.901.612-1.394.901zm1.241.222a10 10 0 0 1-.323 1.377 13 13 0 0 1-1.36-.408c.179-.085.352-.182.527-.28q.16-.091.323-.178c.289-.17.561-.34.833-.51zm-3.774.968c-.459.17-.918.306-1.343.408a23 23 0 0 1-.323-1.36c.255.17.527.34.816.493.272.17.562.323.851.459zm-2.72-2.771a12 12 0 0 1-1.037-.969c.306-.323.663-.663 1.037-.969-.017.323-.034.646-.034.969q.011.241.017.483.005.242.017.486m1.87-4.267c-.193.113-.37.226-.547.34l-.269.17c.085-.493.187-.952.306-1.36.442.102.884.238 1.343.408q-.264.133-.536.282l-.298.16zm2.941-.458c.476-.17.935-.306 1.36-.425.119.425.238.884.323 1.394-.272-.17-.544-.34-.833-.51-.271-.153-.559-.305-.848-.458zm2.737 2.805c.374.306.714.629 1.02.952-.306.323-.646.646-1.02.952.017-.306.034-.629.034-.952a19 19 0 0 1-.017-.475q-.006-.243-.017-.477m-3.774-6.274c.765 0 1.547.833 2.125 2.278-.68.17-1.394.408-2.125.714a14 14 0 0 0-2.108-.714c.561-1.445 1.343-2.278 2.108-2.278M5.832 8.402c.289-.51 1.003-.782 2.006-.782.206 0 .427.015.663.031l.051.004q.076.011.16.026c.055.01.112.017.163.026-.187.663-.34 1.394-.442 2.176-.629.476-1.207.969-1.7 1.496-.952-1.207-1.276-2.312-.901-2.975zm.017 7.224c-.357-.612-.085-1.615.731-2.72.051-.085.119-.17.187-.238.476.51 1.054 1.003 1.683 1.479.102.782.238 1.53.442 2.193-1.547.221-2.669-.051-3.043-.714m6.256 3.621c-.765 0-1.564-.85-2.125-2.278.68-.17 1.394-.408 2.125-.714.731.306 1.462.561 2.142.714-.595 1.445-1.377 2.278-2.142 2.278m6.256-3.621c-.374.663-1.496.918-3.026.697.204-.68.34-1.411.442-2.21.629-.476 1.19-.969 1.666-1.462.068.085.136.17.187.238.816 1.139 1.088 2.125.731 2.737m-8.262-3.603a2.01 2.01 0 0 1 2.006-2.006 2.01 2.01 0 0 1 2.006 2.006 2.01 2.01 0 0 1-2.006 2.006 2.01 2.01 0 0 1-2.006-2.006m1.377 0c0-.34.272-.629.629-.629a.323.323 0 1 0 0-.646c-.697 0-1.275.578-1.275 1.275a.323.323 0 1 0 .646 0"/></svg>

<svg xmlns="http://www.w3.org/2000/svg" width="24" height="24" fill="none" viewBox="0 0 24 24"><path fill="#000" d="M22 12C22 17.523 17.523 22 12 22C6.477 22 2 17.523 2 12C2 6.477 6.477 2 12 2C17.523 2 22 6.477 22 12ZM18.021 12.023C18.067 11.961 18.118 11.899 18.166 11.839C18.224 11.767 18.281 11.697 18.326 11.633C19.363 10.222 19.635 8.913 19.091 7.978C18.496 6.924 16.983 6.584 15.062 6.89C14.365 5.088 13.311 3.949 12.104 3.949C10.897 3.949 9.843 5.088 9.146 6.907C8.992 6.876 8.838 6.86 8.697 6.844L8.652 6.839C6.901 6.635 5.643 7.043 5.099 7.978C4.504 9.032 4.963 10.511 6.187 12.024C6.136 12.092 6.085 12.156 6.034 12.22C5.983 12.284 5.932 12.348 5.881 12.415C4.844 13.826 4.572 15.135 5.116 16.07C5.575 16.869 6.578 17.26 7.887 17.26C8.278 17.26 8.703 17.226 9.162 17.141C9.842 18.96 10.896 20.099 12.103 20.099C13.31 20.099 14.364 18.96 15.061 17.141C15.503 17.209 15.928 17.243 16.319 17.243C17.628 17.243 18.614 16.852 19.09 16.053C19.634 15.118 19.362 13.826 18.325 12.398C18.274 12.339 18.223 12.274 18.172 12.21C18.121 12.146 18.07 12.082 18.019 12.023H18.021ZM16.338 7.619C17.358 7.619 18.072 7.891 18.378 8.401C18.735 9.013 18.463 10.016 17.647 11.121L17.443 11.376C16.95 10.866 16.389 10.373 15.777 9.897C15.675 9.098 15.522 8.367 15.335 7.687L15.391 7.682C15.728 7.65 16.048 7.619 16.338 7.619ZM13.584 14.572C13.074 14.861 12.581 15.116 12.105 15.337C11.629 15.116 11.136 14.861 10.626 14.572C10.198 14.321 9.794 14.057 9.406 13.803C9.348 13.765 9.29 13.726 9.232 13.689C9.181 13.162 9.147 12.618 9.147 12.023C9.147 11.445 9.181 10.884 9.232 10.357C9.674 10.034 10.133 9.745 10.626 9.456C11.119 9.167 11.612 8.929 12.088 8.708C12.581 8.929 13.074 9.184 13.567 9.473C14.06 9.762 14.536 10.068 14.978 10.374C15.029 10.901 15.063 11.445 15.063 12.023C15.063 12.601 15.029 13.145 14.978 13.672C14.536 13.978 14.077 14.284 13.584 14.573V14.572ZM14.825 14.794C14.74 15.287 14.638 15.763 14.502 16.171C14.077 16.069 13.618 15.933 13.142 15.763C13.321 15.678 13.494 15.581 13.669 15.483C13.775 15.423 13.883 15.362 13.992 15.305C14.281 15.135 14.553 14.965 14.825 14.795V14.794ZM11.051 15.762C10.592 15.932 10.133 16.068 9.708 16.17C9.589 15.745 9.487 15.286 9.385 14.81C9.64 14.98 9.912 15.15 10.201 15.303C10.473 15.473 10.763 15.626 11.052 15.762H11.051ZM8.331 12.991C7.94 12.668 7.6 12.345 7.294 12.022C7.6 11.699 7.957 11.359 8.331 11.053C8.314 11.376 8.297 11.699 8.297 12.022C8.305 12.183 8.31 12.344 8.314 12.505C8.318 12.666 8.322 12.829 8.331 12.991ZM10.201 8.724C10.008 8.837 9.831 8.95 9.654 9.064C9.565 9.121 9.476 9.177 9.385 9.234C9.47 8.741 9.572 8.282 9.691 7.874C10.133 7.976 10.575 8.112 11.034 8.282C10.857 8.37 10.68 8.466 10.498 8.564C10.4 8.617 10.301 8.67 10.2 8.724H10.201ZM13.142 8.266C13.618 8.096 14.077 7.96 14.502 7.841C14.621 8.266 14.74 8.725 14.825 9.235C14.553 9.065 14.281 8.895 13.992 8.725C13.721 8.572 13.433 8.42 13.144 8.267L13.142 8.266ZM15.879 11.071C16.253 11.377 16.593 11.7 16.899 12.023C16.593 12.346 16.253 12.669 15.879 12.975C15.896 12.669 15.913 12.346 15.913 12.023C15.905 11.864 15.9 11.705 15.896 11.548C15.891 11.386 15.888 11.227 15.879 11.071ZM12.105 4.797C12.87 4.797 13.652 5.63 14.23 7.075C13.55 7.245 12.836 7.483 12.105 7.789C11.391 7.483 10.677 7.245 9.997 7.075C10.558 5.63 11.34 4.797 12.105 4.797ZM5.832 8.402C6.121 7.892 6.835 7.62 7.838 7.62C8.044 7.62 8.265 7.635 8.501 7.651L8.552 7.655C8.602 7.663 8.657 7.671 8.712 7.681C8.767 7.691 8.824 7.698 8.875 7.707C8.688 8.37 8.535 9.101 8.433 9.883C7.804 10.359 7.226 10.852 6.733 11.379C5.781 10.172 5.457 9.067 5.832 8.404V8.402ZM5.849 15.626C5.492 15.014 5.764 14.011 6.58 12.906C6.631 12.821 6.699 12.736 6.767 12.668C7.243 13.178 7.821 13.671 8.45 14.147C8.552 14.929 8.688 15.677 8.892 16.34C7.345 16.561 6.223 16.289 5.849 15.626ZM12.105 19.247C11.34 19.247 10.541 18.397 9.98 16.969C10.66 16.799 11.374 16.561 12.105 16.255C12.836 16.561 13.567 16.816 14.247 16.969C13.652 18.414 12.87 19.247 12.105 19.247ZM18.361 15.626C17.987 16.289 16.865 16.544 15.335 16.323C15.539 15.643 15.675 14.912 15.777 14.113C16.406 13.637 16.967 13.144 17.443 12.651C17.511 12.736 17.579 12.821 17.63 12.889C18.446 14.028 18.718 15.014 18.361 15.626ZM10.099 12.023C10.099 10.918 11 10.017 12.105 10.017C13.21 10.017 14.111 10.918 14.111 12.023C14.111 13.128 13.21 14.029 12.105 14.029C11 14.029 10.099 13.128 10.099 12.023ZM11.476 12.023C11.476 11.683 11.748 11.394 12.105 11.394C12.275 11.394 12.428 11.258 12.428 11.071C12.428 10.884 12.275 10.748 12.105 10.748C11.408 10.748 10.83 11.326 10.83 12.023C10.83 12.21 10.983 12.346 11.153 12.346C11.34 12.346 11.476 12.193 11.476 12.023Z"/></svg>
